X:1
T:Lewis Ricardo, M.P.
T:Lewis Ricardo, M.P.
T:William Marshall
C:William Marshall
%%score { ( 1 2 ) 3 }
L:1/8
M:4/4
K:Eb
V:1 treble 
V:2 treble 
V:3 bass 
V:1
 G/>F/ | E<G,B,>G, B,>EG>E | B>G A/G/F/E/ G>F FG/F/ | E<G,B,>G, G<E{E}e>c | %4
 B>G B/A/G/F/ [G,E]2 [G,E]G/>F/ | E<G,B,>G, B,>EG>E | B>G (A/G/)(F/E/) G>F FG/F/ | %7
 E<G,B,>G, G<E{E}e>c | B>G B/A/G/F/ [G,E]2 [G,E] x |] c/d/ | eEGB (e/f/)g/a/ be | %11
 (cf)(f>e) (ed)(cd) | .e.E.B.E .G.B.e.G | (F/E/)(D/C/) (B,/C/)D/B,/ [G,E]2 [G,E]c/d/ | %14
 eEGB e/f/g/a/ be | (cf)(f>e) (ed)(c>d) | e>g (f/e/)d/c/ (B/A/)G/F/ E>B, | %17
 [A,C]>A,[A,C]>D [G,E]2 [G,E] |] %18
V:2
 x | x8 | x8 | x8 | E2 D2 x4 | x8 | x8 | x8 | E2 F2 x4 |] x | x8 | x8 | x8 | x8 | x8 | x8 | x8 | %17
 x7 |] %18
V:3
 z | [Ee]2 [Ee]2 [Ee]2 [Ee]2 | [Ee]2 [Ee]2 [Bb]2 [Bb]2 | [Ee]2 [Ee]2 [Ee]2 [Aa]2 | %4
 [Bb]2 [Bb]2 [Ee]2 [Ee] z | [Ee]2 [Ee]2 [Ee]2 [Ee]2 | [Ee]2 [Ee]2 [Bb]2 [Bb]2 | %7
 [Ee]2 [Ee]2 [Ee]2 [Aa]2 | [Bb]2 [Bb]2 [Ee]2 [Ee] x |] z | [egb]2 [egb]2 [gbe']2 [gbe']2 | %11
 [ac'f']2 [=ac'f']2 [bd'f']2 [abf']2 | [gbe']2 [egb]2 [egb]2 [egb]2 | [Bfa]2 [Bfa]2 [Ee]2 [Ee] z | %14
 [egb]2 [egb]2 [gbe']2 [gbe']2 | [ac'f']2 [=ac'f']2 [bd'f']2 [abf']2 | [gbe']2 [ee']2 [Ee]2 [Ee]2 | %17
 [Bb]2 [Bb]2 [Ee]2 [Ee] |] %18

